assets/symbol.svg

<svg width="56" height="52" viewBox="0 0 56 52" fill="none" xmlns="http://www.w3.org/2000/svg">
<rect width="55.4544" height="52" fill="black" fill-opacity="0"/>
<path fill-rule="evenodd" clip-rule="evenodd" d="M48.2333 47.1346C49.7254 45.302 51.4178 43.2243 54.7323 43.2243C55.1366 43.2417 55.454 43.5743 55.454 43.9786C55.454 44.3829 55.1366 44.7155 54.7323 44.7329C52.1327 44.7329 50.8671 46.2866 49.4003 48.0868C47.9081 49.9195 46.2157 51.9972 42.8993 51.9972C39.5907 51.9972 37.8993 49.9277 36.4061 48.0997L36.4032 48.0951L36.3973 48.0868L36.3329 48.0075C36.0497 47.6633 35.7753 47.3272 35.495 47.0107C35.3475 46.9301 35.2303 46.8021 35.1629 46.6472C34.4344 45.8823 33.6454 45.2668 32.618 44.9569C32.576 44.9514 32.534 44.9423 32.493 44.9298L32.4364 44.9094L32.3934 44.8907C31.9579 44.7849 31.5106 44.7329 31.0624 44.7357C28.4628 44.7357 27.1971 46.2894 25.7323 48.0897C24.2401 49.9223 22.5467 52 19.2313 52C15.9188 52 14.2264 49.9244 12.7352 48.0943L12.7323 48.0897C11.2684 46.2852 10.0028 44.7357 7.40318 44.7357C4.8026 44.7357 3.536 46.2894 2.07018 48.0897L2.01451 48.1562L1.994 48.1822L1.98521 48.1944C1.76158 48.4681 1.53697 48.742 1.30748 49.0081C1.03111 49.3061 0.569199 49.3318 0.261581 49.0662C-0.0460358 48.8006 -0.088028 48.3391 0.165878 48.022C0.416855 47.7319 0.659042 47.4332 0.902206 47.1346C2.39244 45.302 4.09459 43.2243 7.41002 43.2243C10.7225 43.2243 12.4149 45.3011 13.9061 47.1316L13.909 47.1346C14.5253 47.891 15.1073 48.6024 15.7655 49.1743L17.3143 35.6022L18.5223 24.9615V24.9291C18.5262 24.902 18.5331 24.8752 18.5399 24.8488C18.5458 24.8277 18.5594 24.8065 18.5594 24.7868L18.5712 24.7611C18.5751 24.7503 18.579 24.7397 18.5848 24.7291L18.5965 24.7051L18.6219 24.66C18.6395 24.6305 18.659 24.6023 18.6805 24.5755L18.703 24.5473L18.7411 24.5071L18.787 24.467L18.8065 24.4516L18.8583 24.4147L18.9061 24.3868L18.9305 24.3741L18.9686 24.3566C18.9881 24.3479 19.0096 24.3401 19.0311 24.3332L19.0741 24.3205C19.1024 24.3131 19.1327 24.3075 19.162 24.3036H19.6102V10.3146V10.2442V10.2357C19.6239 10.0979 19.6766 9.96668 19.7606 9.85681L27.1385 0.278166C27.287 0.101797 27.5057 0 27.7352 0C27.9657 0 28.1844 0.101797 28.3329 0.278166L35.7245 9.85681C35.8104 9.96827 35.8622 10.1016 35.8758 10.2414V10.2498L35.8778 10.2763C35.8788 10.291 35.8778 10.3057 35.8758 10.3202V24.3093H36.3319L36.4032 24.3163C36.4315 24.3199 36.4588 24.3251 36.4862 24.3318L36.537 24.3473C36.5692 24.3579 36.5995 24.3706 36.6297 24.3853L36.662 24.4037C36.6942 24.4211 36.7245 24.4409 36.7538 24.4628L36.7801 24.4854C36.8085 24.5084 36.8338 24.5333 36.8583 24.56L36.8866 24.5938C36.9071 24.6189 36.9256 24.6452 36.9422 24.6727L36.9696 24.722C36.9823 24.7476 36.994 24.7739 37.0047 24.8009C37.0145 24.8206 37.0213 24.8421 37.0243 24.8643L37.037 24.9206L37.0409 24.9446V24.977L38.2489 35.6219L39.8124 49.4025C39.8143 49.4316 39.8143 49.4607 39.8124 49.4898C40.701 50.161 41.7889 50.5128 42.9012 50.4885C45.5008 50.4885 46.7665 48.9348 48.2333 47.1346ZM35.6131 25.8179H35.3065L35.2655 25.8288L35.2215 25.8372L35.1512 25.8448L35.119 25.8461H34.3172L31.6971 30.3861L34.3319 34.9542H36.6503L35.6131 25.8179ZM25.1141 31.1467H30.3827L33.0497 35.767L30.4481 40.2831H25.0985L22.4735 35.7318L25.1141 31.1467ZM22.9081 25.8461L25.0917 29.6311H30.3827L32.5672 25.8461H22.9081ZM27.7303 1.96852L33.5751 9.57508H21.8915L27.7303 1.96852ZM34.3671 11.0739H21.1151V24.3149H34.3671V11.0739ZM19.9266 25.8179H20.1629C20.2254 25.8356 20.2899 25.845 20.3544 25.8461H21.1698L23.7987 30.4044L21.1737 34.9542H18.8905L19.9266 25.8179ZM21.1571 36.4629H18.7215L17.6815 45.5992H21.1542L23.7889 41.031L21.1571 36.4629ZM19.2362 50.4956C18.5272 50.504 17.8251 50.3649 17.1737 50.0871L17.5116 47.1149H21.1717L22.4735 49.3687C21.5624 50.1177 20.4149 50.5173 19.2362 50.4956ZM24.5731 47.1346C26.0653 45.302 27.7577 43.2285 31.0741 43.2285C31.1083 43.2285 31.1405 43.2309 31.1717 43.2333L31.2225 43.2368L31.2518 43.2378L31.2919 43.237L30.4471 41.7847H25.1161L22.4813 46.3528L23.5965 48.2855C23.9198 47.9234 24.2362 47.5361 24.5633 47.1346H24.5731ZM36.2411 45.5992C35.4208 44.7428 34.4637 43.9793 33.2206 43.5609L31.7606 41.0254L34.3954 36.4572H36.8309L37.8661 45.5992H36.2411ZM37.5497 47.1078L37.5712 47.1346L37.7919 47.4053C37.9012 47.5376 38.0087 47.6681 38.1171 47.7967L38.0379 47.1078H37.5497Z" fill="white"/>
<path d="M30.6506 20.0702H24.8069C24.4065 20.086 24.0908 20.3875 24.0908 20.754C24.0908 21.1205 24.4065 21.422 24.8069 21.4378H30.5794C30.8465 21.4495 31.1001 21.3299 31.2447 21.1241C31.3893 20.9183 31.4029 20.6577 31.2803 20.4403C31.1578 20.2229 30.9177 20.0818 30.6506 20.0702Z" fill="white"/>
<path d="M30.6506 16.8772H24.8069C24.4065 16.893 24.0908 17.1945 24.0908 17.561C24.0908 17.9275 24.4065 18.229 24.8069 18.2448H30.5793C30.9923 18.2628 31.343 17.9712 31.3627 17.5936C31.3823 17.2159 31.0635 16.8952 30.6506 16.8772V16.8772Z" fill="white"/>
<path d="M30.6565 14.1409H24.8613C24.4531 14.1265 24.109 14.419 24.0915 14.7952C24.074 15.1714 24.3896 15.49 24.7976 15.508H30.5858C30.9954 15.526 31.3432 15.2345 31.3627 14.857C31.3822 14.4794 31.066 14.1588 30.6565 14.1409Z" fill="white"/>
<path d="M41.0582 19.9298C40.8228 20.2545 40.8711 20.7085 41.1693 20.9745L48.7828 27.2165C49.112 27.4637 49.5743 27.4031 49.8311 27.079C50.0878 26.755 50.0477 26.2827 49.7402 26.0081L42.1267 19.7661C41.9637 19.6436 41.7595 19.592 41.559 19.6227C41.3586 19.6534 41.1784 19.7639 41.0582 19.9298Z" fill="white"/>
<path d="M41.6698 14.5965C41.8431 14.5979 42.0117 14.5387 42.1472 14.4287L49.7409 8.19962C50.0476 7.92563 50.0876 7.4543 49.8315 7.1309C49.5754 6.80749 49.1143 6.74699 48.786 6.9937L41.1923 13.2185C40.9413 13.4247 40.8453 13.7695 40.9526 14.0791C41.0598 14.3888 41.3472 14.596 41.6698 14.5965Z" fill="white"/>
<path d="M42.7275 16.6481C42.7275 17.0261 43.0606 17.3325 43.4715 17.3325H53.3117C53.7222 17.3505 54.0708 17.059 54.0903 16.6813C54.1099 16.3036 53.793 15.9829 53.3825 15.9649H43.4715C43.0611 15.9649 42.7283 16.2706 42.7275 16.6481Z" fill="white"/>
<path d="M13.3084 19.7839H13.2999L5.7342 25.9951C5.52354 26.1697 5.42049 26.4454 5.46387 26.7182C5.50725 26.9911 5.69047 27.2197 5.94451 27.3179C6.19855 27.4161 6.48483 27.3691 6.69549 27.1944L14.2598 20.9919C14.4719 20.819 14.5773 20.5442 14.5363 20.2709C14.4952 19.9976 14.3138 19.7674 14.0606 19.6669C13.8073 19.5665 13.5206 19.6111 13.3084 19.7839Z" fill="white"/>
<path d="M5.75947 8.23753L13.334 14.4455C13.6615 14.6912 14.1214 14.631 14.3769 14.3089C14.6323 13.9868 14.5924 13.5174 14.2865 13.2445L6.72188 7.03654C6.51567 6.85124 6.22716 6.79325 5.96703 6.88481C5.70691 6.97638 5.51555 7.20328 5.46638 7.47848C5.41721 7.75368 5.51785 8.03444 5.72971 8.21305L5.75947 8.23753Z" fill="white"/>
<path d="M2.07415 17.3333H12.0127C12.412 17.3175 12.7269 17.016 12.7269 16.6494C12.7269 16.2828 12.412 15.9812 12.0127 15.9654H2.13821C1.72764 15.9511 1.38161 16.2437 1.36398 16.6201C1.34635 16.9966 1.66375 17.3153 2.07415 17.3333Z" fill="white"/>
</svg>

<?xml version="1.0" encoding="utf-8"?>
<!-- Generator: Adobe Illustrator 21.0.0, SVG Export Plug-In . SVG Version: 6.00 Build 0)  -->
<svg version="1.1" id="Layer_1" xmlns="http://www.w3.org/2000/svg" xmlns:xlink="http://www.w3.org/1999/xlink" x="0px" y="0px"
	 viewBox="0 0 56 52" style="enable-background:new 0 0 56 52;" xml:space="preserve">
<style type="text/css">
	.st0{fill-opacity:0;}
</style>
<rect y="0" class="st0" width="55.5" height="52"/>
<path d="M48.2,47.1c1.5-1.8,3.2-3.9,6.5-3.9c0.4,0,0.7,0.3,0.7,0.8s-0.3,0.7-0.7,0.8c-2.6,0-3.9,1.6-5.3,3.4
	c-1.5,1.8-3.2,3.9-6.5,3.9c-3.3,0-5-2.1-6.5-3.9l0,0l0,0L36.3,48c-0.3-0.3-0.6-0.7-0.8-1c-0.1-0.1-0.3-0.2-0.3-0.4
	c-0.7-0.8-1.5-1.4-2.5-1.7c0,0-0.1,0-0.1,0l-0.1,0l0,0c-0.4-0.1-0.9-0.2-1.3-0.2c-2.6,0-3.9,1.6-5.3,3.4c-1.5,1.8-3.2,3.9-6.5,3.9
	c-3.3,0-5-2.1-6.5-3.9l0,0c-1.5-1.8-2.7-3.4-5.3-3.4c-2.6,0-3.9,1.6-5.3,3.4L2,48.2l0,0l0,0c-0.2,0.3-0.4,0.5-0.7,0.8
	c-0.3,0.3-0.7,0.3-1,0.1c-0.3-0.3-0.3-0.7-0.1-1c0.3-0.3,0.5-0.6,0.7-0.9c1.5-1.8,3.2-3.9,6.5-3.9c3.3,0,5,2.1,6.5,3.9l0,0
	c0.6,0.8,1.2,1.5,1.9,2l1.5-13.6L18.5,25v0c0,0,0-0.1,0-0.1c0,0,0,0,0-0.1l0,0c0,0,0,0,0,0l0,0l0,0c0,0,0-0.1,0.1-0.1l0,0l0,0l0,0
	l0,0l0.1,0l0,0l0,0l0,0c0,0,0,0,0.1,0l0,0c0,0,0.1,0,0.1,0h0.4v-14v-0.1v0c0-0.1,0.1-0.3,0.2-0.4l7.4-9.6C27.3,0.1,27.5,0,27.7,0
	c0.2,0,0.4,0.1,0.6,0.3l7.4,9.6c0.1,0.1,0.1,0.2,0.2,0.4v0l0,0c0,0,0,0,0,0v14h0.5l0.1,0c0,0,0.1,0,0.1,0l0.1,0c0,0,0.1,0,0.1,0l0,0
	c0,0,0.1,0,0.1,0.1l0,0c0,0,0.1,0,0.1,0.1l0,0c0,0,0,0.1,0.1,0.1l0,0c0,0,0,0.1,0,0.1c0,0,0,0,0,0.1l0,0.1l0,0v0l1.2,10.6l1.6,13.8
	c0,0,0,0.1,0,0.1c0.9,0.7,2,1,3.1,1C45.5,50.5,46.8,48.9,48.2,47.1z M35.6,25.8h-0.3l0,0l0,0l-0.1,0l0,0h-0.8l-2.6,4.5l2.6,4.6h2.3
	L35.6,25.8z M25.1,31.1h5.3l2.7,4.6l-2.6,4.5h-5.3l-2.6-4.6L25.1,31.1z M22.9,25.8l2.2,3.8h5.3l2.2-3.8H22.9z M27.7,2l5.8,7.6H21.9
	L27.7,2z M34.4,11.1H21.1v13.2h13.3V11.1z M19.9,25.8h0.2c0.1,0,0.1,0,0.2,0h0.8l2.6,4.6L21.2,35h-2.3L19.9,25.8z M21.2,36.5h-2.4
	l-1,9.1h3.5l2.6-4.6L21.2,36.5z M19.2,50.5c-0.7,0-1.4-0.1-2.1-0.4l0.3-3h3.7l1.3,2.3C21.6,50.1,20.4,50.5,19.2,50.5z M24.6,47.1
	c1.5-1.8,3.2-3.9,6.5-3.9c0,0,0.1,0,0.1,0l0.1,0l0,0l0,0l-0.8-1.5h-5.3l-2.6,4.6l1.1,1.9C23.9,47.9,24.2,47.5,24.6,47.1L24.6,47.1z
	 M36.2,45.6c-0.8-0.9-1.8-1.6-3-2L31.8,41l2.6-4.6h2.4l1,9.1H36.2z M37.5,47.1L37.5,47.1l0.2,0.3c0.1,0.1,0.2,0.3,0.3,0.4L38,47.1
	H37.5z"/>
<path d="M30.7,20.1h-5.8c-0.4,0-0.7,0.3-0.7,0.7c0,0.4,0.3,0.7,0.7,0.7h5.8c0.3,0,0.5-0.1,0.7-0.3c0.1-0.2,0.2-0.5,0-0.7
	C31.2,20.2,30.9,20.1,30.7,20.1z"/>
<path d="M30.7,16.9h-5.8c-0.4,0-0.7,0.3-0.7,0.7c0,0.4,0.3,0.7,0.7,0.7h5.8c0.4,0,0.8-0.3,0.8-0.7C31.4,17.2,31.1,16.9,30.7,16.9
	L30.7,16.9z"/>
<path d="M30.7,14.1h-5.8c-0.4,0-0.8,0.3-0.8,0.7c0,0.4,0.3,0.7,0.7,0.7h5.8c0.4,0,0.8-0.3,0.8-0.7C31.4,14.5,31.1,14.2,30.7,14.1z"
	/>
<path d="M41.1,19.9c-0.2,0.3-0.2,0.8,0.1,1l7.6,6.2c0.3,0.2,0.8,0.2,1-0.1c0.3-0.3,0.2-0.8-0.1-1.1l-7.6-6.2
	c-0.2-0.1-0.4-0.2-0.6-0.1C41.4,19.7,41.2,19.8,41.1,19.9z"/>
<path d="M41.7,14.6c0.2,0,0.3-0.1,0.5-0.2l7.6-6.2c0.3-0.3,0.3-0.7,0.1-1.1c-0.3-0.3-0.7-0.4-1-0.1l-7.6,6.2
	c-0.3,0.2-0.3,0.6-0.2,0.9C41.1,14.4,41.3,14.6,41.7,14.6z"/>
<path d="M42.7,16.6c0,0.4,0.3,0.7,0.7,0.7h9.8c0.4,0,0.8-0.3,0.8-0.7c0-0.4-0.3-0.7-0.7-0.7h-9.9C43.1,16,42.7,16.3,42.7,16.6z"/>
<path d="M13.3,19.8L13.3,19.8L5.7,26c-0.2,0.2-0.3,0.5-0.3,0.7c0,0.3,0.2,0.5,0.5,0.6c0.3,0.1,0.5,0.1,0.8-0.1l7.6-6.2
	c0.2-0.2,0.3-0.4,0.3-0.7c0-0.3-0.2-0.5-0.5-0.6C13.8,19.6,13.5,19.6,13.3,19.8z"/>
<path d="M5.8,8.2l7.6,6.2c0.3,0.2,0.8,0.2,1-0.1c0.3-0.3,0.2-0.8-0.1-1.1L6.7,7C6.5,6.9,6.2,6.8,6,6.9C5.7,7,5.5,7.2,5.5,7.5
	C5.4,7.8,5.5,8,5.8,8.2L5.8,8.2z"/>
<path d="M2.1,17.3H12c0.4,0,0.7-0.3,0.7-0.7S12.4,16,12,16H2.1c-0.4,0-0.8,0.3-0.8,0.7C1.3,17,1.7,17.3,2.1,17.3z"/>
</svg>
